X: 13514
T: Flowers Of Red Hill, The
R: reel
M: 4/4
K: Edorian
|:BEEE dEcE|BEEE BAFA|BEEE B2ec|dBAF DEFA:|
Beee feee|Beed BdAd|Beee feee|BABc dBAd|
Beee feee|Beec ddde|f2fd edBA|Beed BAFA||

